X:1
T: Alasdair's Fancy
C:Bruce Shawyer
R:Reel
I:speed 232
K:G
M:4/4
L:1/16
|:d2|G4B4 d4c2d2|e2d2c2B2 d2c2B2A2|G4B2c2 d2g2d2B2|c2e2d2f2 g4g4|
G4B4 d4c2d2|e2d2c2B2 d2c2B2A2|G4B2c2 d2g2d2B2|c2e2d2f2 g4g4|
g2d2B4 B2c2d4|e2c2e2c2 d2f2a2f2|g4G2A2 B2c2d4|e2d2^c2e2 d4d4|
c2d2e2c2 B2d2c2B2|c2d2e2c2 B2A2G4|e2d2c2B2 A2B2c2d2|B4B4 G6:|
